!!!OTL-incipit: HOERET WIE DIE WACHTEL IN FREUDEN DORT SCHLAEGT
!!!ARE: Europa, Mitteleuropa, Deutschland, Franken
!!!SCT: Z0134
!!!YEM: Copyright 1995, estate of Helmut Schaffrath.
**kern	**text
*ICvox	*
*M3/4	*
*k[b-]	*
*F:	*
=1	=1
!LO:TX:a:t=Von einem Harfner aus Franken.	!
{4cc	Hö-
(8cc	-ret
8a)	.
8ff	wie
8dd	die
=2	=2
4cc	Wach-
4.cc	-tel
8dd	in
=3	=3
(8cc	Freu-
8b-)	.
4a	-den
4g	dort
=4	=4
4f	ſchlägt
4r}	.
{8f	wal-
8a	-te
=5	=5
4f	Gott!
4r	.
8f	"wal-
8a	-te
=6	=6
4f	Gott!
4r	.
4r}	.
=7	=7
{4f	gieb
4a	nur
8.cc	kei-
16dd	-nen
=8	=8
8ccL	Schau-
8b-J	.
8aL	-er!"
8gJ	.
8fL	ſie
8eJ	.
=9	=9
4f	ſagt.
4r	.
4r}	.
=10	=10
{4a	Flie-
4cc	-get
4a	von
=11	=11
4g	ei-
4b-/	-nem
4g	ʒum
=12	=12
8f	an-
8f	-dern
4cc	grü-
8.aL	-nen
16gJ	.
=13	=13
4g	Feld,
4r	.
4r}	.
=14	=14
{4f	und
4cc	uns
4a	den
=15	=15
4g	Wachsthum
4b-/	.
4g	der
=16	=16
4f	Früchte
4cc	.
8.aL	ver-
16fJ	.
=17	=17
4g	meldt,
4r	.
4r}	.
=18	=18
{4cc	und
8ccL	uns
8aJ	.
8b-L	beim
8ddJ	.
=19	=19
8.ddL	Sonnen-
16ccJ	.
4.cc	-ſchein
8dd	gar
=20	=20
8ccL	freund-
8b-J	.
4a	-lich
4g	ver-
=21	=21
4f	-mahnt:
4r	.
4r}	.
=22	=22
{8.f	"dan-
16a	-ket
4f	Gott!
4r	.
=23	=23
8.f	an-
16a	-ket
4f	Gott!"
4r}	.
=24	=24
{4.f	für
8a	die
8cc	ſchö-
8dd	-nen
=25	=25
4cc	Früch-
4a	-te
4g	im
=26	=26
2f	Land.
4r}	.
==	==
!!!AGN: Erzaehlung, lustige Romanze
!!!ONB: ESAC (Essen Associative Code) Database: ZUCCAL
!!!AMT: simple triple
!!!AIN: vox
!!!EED: Helmut Schaffrath
!!!EEV: 1.0
!!!GTL: II. Erzahlungen, lustige Romanzen, Kinder-Lieder und episch-lyrische Volks-Lieder.
!!!URL-scan: https://www.digitale-sammlungen.de/de/view/bsb11160571?page=252
!!!ENC: Anna Maria Matuszewska
!!!EEV: 2025/01/27
*-	*-
